packages/dnb-ui-lib/assets/icons/hide.svg

<svg width="16" height="16" viewBox="0 0 16 16" fill="none" xmlns="http://www.w3.org/2000/svg">
<path d="M7.99907 4.00075L7.98642 4.75064C7.99485 4.75079 8.00328 4.75079 8.01172 4.75064L7.99907 4.00075ZM1.26592 7.50639L0.710792 7.00207L0.708655 7.00444L1.26592 7.50639ZM1.26592 8.89148L0.708651 9.39344L0.710643 9.39563L1.26592 8.89148ZM7.99907 12.399L8.01169 11.6491C8.00327 11.649 7.99486 11.649 7.98645 11.6491L7.99907 12.399ZM14.7341 8.89148L15.2892 9.39585L15.2913 9.39343L14.7341 8.89148ZM14.7341 7.50639L15.2914 7.00443L15.2889 7.00176L14.7341 7.50639ZM8.59181 4.77678C9.00377 4.8199 9.37269 4.52089 9.41581 4.10893C9.45893 3.69697 9.15992 3.32805 8.74796 3.28493L8.59181 4.77678ZM14.511 6.21566C14.2077 5.93347 13.7332 5.95051 13.451 6.25373C13.1688 6.55695 13.1858 7.03152 13.489 7.31371L14.511 6.21566ZM1.48855 10.183C1.79151 10.4655 2.2661 10.4489 2.54856 10.1459C2.83103 9.84294 2.81441 9.36836 2.51145 9.08589L1.48855 10.183ZM7.45877 11.6285C7.04635 11.59 6.68084 11.8932 6.64239 12.3056C6.60393 12.718 6.9071 13.0835 7.31952 13.122L7.45877 11.6285ZM14.7517 2.53033C15.0446 2.23744 15.0446 1.76256 14.7517 1.46967C14.4588 1.17678 13.9839 1.17678 13.691 1.46967L14.7517 2.53033ZM1.24643 13.9143C0.953541 14.2072 0.953541 14.682 1.24643 14.9749C1.53933 15.2678 2.0142 15.2678 2.30709 14.9749L1.24643 13.9143ZM8.01172 3.25086C5.18594 3.20319 2.40031 5.14238 0.710797 7.00207L1.82104 8.01072C3.39325 6.28014 5.79577 4.71369 7.98642 4.75064L8.01172 3.25086ZM0.708655 7.00444C0.413394 7.33223 0.25 7.75777 0.25 8.19894H1.75C1.75 8.12855 1.77607 8.06065 1.82318 8.00835L0.708655 7.00444ZM0.25 8.19894C0.25 8.6401 0.413394 9.06564 0.708655 9.39343L1.82318 8.38952C1.77607 8.33722 1.75 8.26933 1.75 8.19894H0.25ZM7.98645 13.1489C10.8582 13.1972 13.6372 11.2139 15.2892 9.39585L14.179 8.38711C12.6376 10.0834 10.2422 11.6866 8.01169 11.6491L7.98645 13.1489ZM15.2913 9.39343C15.5866 9.06564 15.75 8.64011 15.75 8.19894H14.25C14.25 8.26932 14.2239 8.33722 14.1768 8.38952L15.2913 9.39343ZM15.75 8.19894C15.75 7.75777 15.5866 7.33223 15.2913 7.00444L14.1768 8.00835C14.2239 8.06065 14.25 8.12855 14.25 8.19894H15.75ZM8.74796 3.28493C8.49563 3.25852 8.24145 3.24656 7.98642 3.25086L8.01172 4.75064C8.20303 4.74742 8.39655 4.75634 8.59181 4.77678L8.74796 3.28493ZM15.2889 7.00176C15.0477 6.73656 14.7874 6.47295 14.511 6.21566L13.489 7.31371C13.7354 7.54296 13.9664 7.77698 14.1792 8.01103L15.2889 7.00176ZM0.710643 9.39563C0.950565 9.65988 1.21086 9.92412 1.48855 10.183L2.51145 9.08589C2.26392 8.85511 2.03289 8.62049 1.82119 8.38733L0.710643 9.39563ZM7.31952 13.122C7.54879 13.1434 7.77975 13.1528 8.01169 13.1489L7.98645 11.6491C7.81187 11.652 7.63587 11.645 7.45877 11.6285L7.31952 13.122ZM13.691 1.46967L1.24643 13.9143L2.30709 14.9749L14.7517 2.53033L13.691 1.46967Z" fill="black"/>
</svg>

<svg width="16" height="16" viewBox="0 0 16 16" fill="none" xmlns="http://www.w3.org/2000/svg"><path d="M8 4l-.014.75h.026L7.999 4zM1.265 7.507L.71 7.002l-.002.002.557.502zm0 1.385l-.557.502.002.003.555-.505zM7.999 12.4l.013-.75h-.026L8 12.4zm6.735-3.508l.555.505.002-.003-.557-.502zm0-1.385l.557-.502-.002-.002-.555.504zm-6.142-2.73a.75.75 0 00.156-1.491l-.156 1.492zm5.919 1.44a.75.75 0 00-1.022 1.098l1.022-1.098zM1.489 10.183A.75.75 0 102.51 9.086L1.49 10.183zm5.97 1.446a.75.75 0 10-.14 1.493l.14-1.493zm7.293-9.099a.75.75 0 10-1.061-1.06l1.06 1.06zM1.246 13.914a.75.75 0 101.061 1.06l-1.06-1.06zM8.012 3.251C5.186 3.203 2.4 5.142.71 7.002l1.11 1.009c1.572-1.73 3.975-3.297 6.165-3.26l.026-1.5zM.709 7.004A1.785 1.785 0 00.25 8.2h1.5c0-.07.026-.138.073-.19L.71 7.003zM.25 8.2c0 .441.163.867.459 1.194L1.823 8.39a.285.285 0 01-.073-.191H.25zm7.736 4.95c2.872.048 5.651-1.935 7.303-3.753l-1.11-1.009c-1.541 1.696-3.937 3.3-6.167 3.262l-.026 1.5zm7.305-3.756c.296-.327.459-.753.459-1.194h-1.5c0 .07-.026.138-.073.19l1.114 1.004zM15.75 8.2c0-.441-.163-.867-.459-1.195l-1.114 1.004c.047.053.073.12.073.19h1.5zM8.748 3.285a6.295 6.295 0 00-.762-.034l.026 1.5c.191-.004.385.005.58.026l.156-1.492zm6.54 3.717a13.334 13.334 0 00-.777-.786l-1.022 1.098c.246.229.477.463.69.697l1.11-1.01zM.712 9.396c.24.264.5.528.778.787L2.51 9.086c-.247-.23-.478-.466-.69-.699L.711 9.396zm6.609 3.726c.229.021.46.03.692.027l-.026-1.5a4.823 4.823 0 01-.527-.02l-.14 1.493zM13.69 1.47L1.246 13.914l1.061 1.06L14.752 2.53 13.69 1.47z" fill="#000"/></svg>
